icons/qutim-default/scalable/actions/im-ban-user.svg

<?xml version="1.0" encoding="UTF-8" standalone="no"?>
<!-- Created with Inkscape (http://www.inkscape.org/) -->

<svg
   xmlns:dc="http://purl.org/dc/elements/1.1/"
   xmlns:cc="http://creativecommons.org/ns#"
   xmlns:rdf="http://www.w3.org/1999/02/22-rdf-syntax-ns#"
   xmlns:svg="http://www.w3.org/2000/svg"
   xmlns="http://www.w3.org/2000/svg"
   xmlns:xlink="http://www.w3.org/1999/xlink"
   xmlns:sodipodi="http://sodipodi.sourceforge.net/DTD/sodipodi-0.dtd"
   xmlns:inkscape="http://www.inkscape.org/namespaces/inkscape"
   inkscape:version="0.48.4 r9939"
   version="1.1"
   id="svg2"
   height="1000"
   width="1000"
   sodipodi:docname="im-ban-user.svg">
  <defs
     id="defs4">
    <linearGradient
       inkscape:collect="always"
       xlink:href="#linearGradient3290-7"
       id="linearGradient3001"
       gradientUnits="userSpaceOnUse"
       gradientTransform="matrix(0,-104.80417,106.81807,0,-675.91919,2123.2129)"
       x1="11"
       y1="11.015625"
       x2="19"
       y2="11.015625" />
    <linearGradient
       id="linearGradient3290-7">
      <stop
         style="stop-color:#ba0000;stop-opacity:1;"
         offset="0"
         id="stop3292-2" />
      <stop
         style="stop-color:#ff331e;stop-opacity:1;"
         offset="1"
         id="stop3294-3" />
    </linearGradient>
    <linearGradient
       id="linearGradient3806"
       inkscape:collect="always">
      <stop
         id="stop3808"
         offset="0"
         style="stop-color:#fff6d5;stop-opacity:1;" />
      <stop
         id="stop3810"
         offset="1"
         style="stop-color:#fff6d5;stop-opacity:0;" />
    </linearGradient>
    <linearGradient
       inkscape:collect="always"
       xlink:href="#linearGradient3806"
       id="linearGradient3848"
       x1="499.01535"
       y1="130.95543"
       x2="499.01535"
       y2="1052.3622"
       gradientUnits="userSpaceOnUse" />
  </defs>
  <sodipodi:namedview
     id="base"
     pagecolor="#ffffff"
     bordercolor="#666666"
     borderopacity="1.0"
     inkscape:pageopacity="0.0"
     inkscape:pageshadow="2"
     inkscape:zoom="0.631"
     inkscape:cx="500"
     inkscape:cy="500"
     inkscape:document-units="px"
     inkscape:current-layer="layer1"
     showgrid="false"
     inkscape:window-width="1440"
     inkscape:window-height="848"
     inkscape:window-x="-8"
     inkscape:window-y="-8"
     inkscape:window-maximized="1"
     inkscape:snap-bbox="false"
     inkscape:snap-global="true"
     showguides="true"
     inkscape:guide-bbox="true">
    <sodipodi:guide
       orientation="1,0"
       position="0,810.14234"
       id="guide3219" />
    <sodipodi:guide
       orientation="1,0"
       position="1000.051,496.99505"
       id="guide3221" />
    <sodipodi:guide
       orientation="0,1"
       position="-389.91888,499.01535"
       id="guide3224" />
    <sodipodi:guide
       orientation="1,0"
       position="499.01535,349.51278"
       id="guide3226" />
    <sodipodi:guide
       orientation="0,1"
       position="-909.13728,0"
       id="guide3230" />
  </sodipodi:namedview>
  <metadata
     id="metadata7">
    <rdf:RDF>
      <cc:Work
         rdf:about="">
        <dc:format>image/svg+xml</dc:format>
        <dc:type
           rdf:resource="http://purl.org/dc/dcmitype/StillImage" />
        <dc:title />
      </cc:Work>
    </rdf:RDF>
  </metadata>
  <g
     inkscape:label="Layer 1"
     inkscape:groupmode="layer"
     id="layer1"
     transform="translate(0,-52.362183)">
    <path
       inkscape:connector-curvature="0"
       id="path3349"
       d="M 498.59729,331.42512 285.5581,125.32705 26.066744,379.6793 235.56864,586.11107 26.000003,792.40937 285.5581,1046.8283 498.59729,840.73029 709.36728,1047.3622 975.99998,785.33476 765.76393,586.11107 975.99998,386.82065 709.76773,125.19356 z"
       style="opacity:0.07999998;fill:#000000;fill-opacity:1;fill-rule:evenodd;stroke:none;display:inline"
       sodipodi:nodetypes="ccccccccccccc" />
    <path
       inkscape:connector-curvature="0"
       id="path3337"
       d="M 706.49739,151.82346 498.86426,355.25187 285.5581,149.02032 50.360688,379.74604 260.19629,586.11107 50.360688,792.40937 285.5581,1023.1351 498.86426,816.90354 709.36728,1023.3352 951.43907,785.53498 741.13628,586.11107 951.43907,386.62042 709.50076,148.95357 l -1.54411,1.4755 z"
       style="opacity:0.15;fill:#000000;fill-opacity:1;fill-rule:evenodd;stroke:none;display:inline"
       sodipodi:nodetypes="ccccccccccccccc" />
    <path
       inkscape:connector-curvature="0"
       id="path3751"
       d="M 80.728117,379.74604 290.89743,586.11107 80.728117,792.40937 285.5581,993.43497 499.06449,787.07004 709.36728,993.3017 920.73793,785.86869 710.30166,586.11107 920.73793,386.28671 709.36728,178.85381 499.06449,385.08537 285.5581,178.72033 z"
       style="opacity:0.3;fill:#000000;fill-opacity:1;fill-rule:evenodd;stroke:none;display:inline"
       sodipodi:nodetypes="ccccccccccccc" />
    <path
       inkscape:connector-curvature="0"
       style="fill:url(#linearGradient3001);fill-opacity:1;fill-rule:evenodd;stroke:#a00000;display:inline;stroke-opacity:1;stroke-width:20;stroke-miterlimit:4;stroke-dasharray:none;opacity:1"
       d="M 68.469233,757.48363 285.4436,970.36672 499.07933,764.03387 709.37751,970.36672 933.02806,750.93336 722.72991,551.15043 933.02806,351.36751 709.37751,131.93346 499.07933,338.26665 285.4436,131.93346 68.469233,344.8169 278.76739,551.15043 68.469233,757.48363 z"
       id="path7165" />
    <path
       inkscape:connector-curvature="0"
       style="opacity:0.5;fill:url(#linearGradient3848);fill-opacity:1;fill-rule:nonzero;stroke:none;display:inline"
       d="M 285.73466,131.93346 68.469233,344.8169 104.49251,379.75163 285.73466,201.80291 499.62292,408.13608 709.00826,201.80291 897.00479,385.21018 933.02806,351.36717 709.00826,131.93346 499.62292,338.26665 z m -7.01842,418.37191 -210.247007,207.17789 36.023277,34.93472 174.48777,-171.39846 -0.25214,-70.71415 z m 444.62246,1.65241 -0.82134,69.0628 174.48777,165.93992 36.0233,-36.02643 -209.68901,-198.97629 z"
       id="path2970"
       sodipodi:nodetypes="ccccccccccccccccccccccc" />
  </g>
</svg>

<svg xmlns="http://www.w3.org/2000/svg" viewBox="0 0 1000 1000">
<defs>
<linearGradient xlink:href="#linearGradient3806" id="linearGradient3848" y1="130.955" y2="1052.362" x2="0" gradientUnits="userSpaceOnUse"/>
<linearGradient id="linearGradient3806">
<stop offset="0" stop-color="#fff6d5"/>
<stop offset="1" stop-color="#fff6d5" stop-opacity="0"/>
</linearGradient>
<linearGradient gradientTransform="matrix(0 -104.80417 106.81807 0 -675.91919 2123.2129)" xlink:href="#linearGradient3290-7" id="linearGradient3001" x1="11" gradientUnits="userSpaceOnUse" x2="19"/>
<linearGradient id="linearGradient3290-7">
<stop offset="0" stop-color="#ba0000"/>
<stop offset="1" stop-color="#ff331e"/>
</linearGradient>
</defs>
<g transform="translate(0 -52.36218)">
<path opacity=".08" fill-rule="evenodd" d="m498.5973,331.4251-213.0392-206.0981-259.4914,254.3523 209.5019,206.4318-209.5686,206.2983 259.5581,254.4189 213.0392-206.098 210.77,206.6319 266.6327-262.0274-210.2361-199.2237 210.2361-199.2904-266.2323-261.6271z"/>
<path opacity=".15" fill-rule="evenodd" d="m706.4974,151.8235-207.6331,203.4284-213.3062-206.2315-235.1974,230.7257 209.8356,206.365-209.8356,206.2983 235.1974,230.7257 213.3062-206.2316 210.503,206.4317 242.0718-237.8002-210.3028-199.4239 210.3028-199.4907-241.9383-237.6669l-1.5441,1.4755z"/>
<path opacity=".3" fill-rule="evenodd" d="m80.7281,379.746 210.1693,206.365-210.1693,206.2983 204.83,201.0256 213.5064-206.3649 210.3028,206.2317 211.3706-207.433-210.4363-199.7576 210.4363-199.8244-211.3706-207.4329-210.3028,206.2316-213.5064-206.365z"/>
<path fill="url(#linearGradient3001)" fill-rule="evenodd" stroke="#a00000" stroke-width="20" d="m68.4692,757.4836 216.9744,212.8831 213.6357-206.3329 210.2982,206.3329 223.6505-219.4334-210.2981-199.7829 210.2981-199.7829-223.6505-219.434-210.2982,206.3332-213.6357-206.3332-216.9744,212.8834 210.2982,206.3335-210.2982,206.3332z"/>
<path opacity=".5" fill="url(#linearGradient3848)" d="m285.7347,131.9335-217.2654,212.8834 36.0233,34.9347 181.2422-177.9487 213.8883,206.3332 209.3853-206.3332 187.9965,183.4073 36.0233-33.843-224.0198-219.4337-209.3853,206.3332zm-7.0184,418.3719-210.247,207.1779 36.0233,34.9347 174.4878-171.3985-.2521-70.7142zm444.6225,1.6524-.8213,69.0628 174.4878,165.9399 36.0233-36.0264-209.689-198.9763z"/>
</g>
</svg>
